X:1
T: Highland Quickstep
C:
R:Jig
Q:180
K:Am
M:6/8
L:1/16
|:a2|e2A2e2 e2d2B2|d2B2A2 A4B2|G4e2 d2B2d2|B2A2G2 G4g2|
^f2e2d2 e2^f2g2|a2^g2a2 e4^f2|g4e2 d2B2d2|e4A2 A4:|
|:e2|a2^g2a2 e2^f2^g2|a2^g2a2 e4^f2|g2^f2g2 d2e2^f2|g2^f2g2 e4^g2|
a2^g2a2 e2^f2^g2|a2^g2a2 e4^f2|g4e2 d2B2d2|e4A2 A4:|
